X:434
T:Kinnegad Slashers, The
R:jig
H:Also played with only first two parts
Z:hn-jig-434
M:6/8
L:1/8
K:D
ded dAF | ABA ABc | ded dAF | E2e gfe |
ded dAF | ABA a2g | fef dBA | Bdc d2A :|
|: dfa afd | cde ecA | dfa afd | faa a2f |
dfa afd | cde eag | fef dBA | Bdc d2A :|
|: dAF dAF | ABA ABc | dAF dAF | E2e gfe |
dAF dAF | ABA a2g | fef dBA | Bdc d2A :| 
P:variations
|: ded dAF | ABA ABc | dAF DFA | Bee efe |
ded dAF | ABA Aag | ~f3 dBA | Bdc d2A :|
|: dfa afd | cde ecA | dfa afd | a^ga b=ge |
dfa afd | cde eag | f2e dBA | Bdc d2A :|
|: dAF dAF | dAF ABc | dAF dAF | Eee e2f |
dAF dAF | dAF a2g | fef dBA | Bdc d2A :| 

